X:1
T:Gräfenberg, CM
T:Gräfenberg, CM
T:Johann Crüger, 1647
T:Public Domain Courtesy of the Cyber Hymnal™
C:Johann Crüger, 1647
Z:Public Domain
Z:Courtesy of the Cyber Hymnal™
%%score ( 1 2 ) ( 3 4 )
L:1/8
Q:1/4=140
M:4/4
K:F
V:1 treble 
V:2 treble 
V:3 bass 
V:4 bass 
V:1
 [A,F]4 [B,D]2 C2 | [DF]4 [EG]4 | [FA]2 [FA]2 [EG]4- | [EG]2 [FA]2 [Fc]2 [GB]2 | [FA]4 [EG]4 | F8 | %6
 [Fc]4 [FA]2 [Fc]2 | d4 [Fc]4 | [EB]2 [FA]2 [EG]4- | [EG]2 [Ec]2 F2 [GB]2 | [FA]4 [EG]4 | F8 |] %12
V:2
 x6 C2 | x8 | x8 | x8 | x8 | F8 | x8 | (D2 E2) x4 | x8 | x4 F2 x2 | x8 | F8 |] %12
V:3
 [F,,F,]4 [G,,E,]2 [A,,F,]2 | [B,,F,]4 [G,,B,]4 | [F,,A,]2 [A,,C]2 [C,C]4- | %3
 [C,C]2 [F,C]2 [A,,C]2 [B,,D]2 | [C,C]4 (C2 B,2) | [F,,A,]8 | [F,A,]4 [F,C]2 [A,,C]2 | %7
 (F,2 G,2) [A,,A,]4 | [G,,B,]2 [F,,C]2 [C,C]4- | [C,C]2 [A,,C]2 [D,A,]2 [G,,D]2 | C4 (C2 B,2) | %11
 [F,,A,]8 |] %12
V:4
 x8 | x8 | x8 | x8 | x4 C,4 | x8 | x8 | B,,4 x4 | x8 | x8 | (A,,3 B,,) C,4 | x8 |] %12

